!!!COM: des Prez, Josquin
!!!CDT: ~1450-1521/08/27
!!!OPR: Missa Lami Baudichon
!!!ONM: 5
!!!OTL: Agnus dei
!!!AGN: Mass; Agnus dei
!!!SCT: NJE 5.1
!!!SCA: New Josquin Edition 5.1
!!!voices: 4
!!!voices-OPR: 4
**kern	**text	**text	**kern	**text	**kern	**text	**text	**kern	**text	**text
*Ivox	*	*	*Ivox	*	*Ivox	*	*	*Ivox	*	*
*I"Bassus	*	*	*I"Tenor	*	*I"Altus	*	*	*I"Superius	*	*
*I'B	*	*	*I'T	*	*I'A	*	*	*I'S	*	*
*staff4	*	*	*staff3	*	*staff2	*	*	*staff1	*	*
*clefF4	*	*	*clefGv2	*	*clefGv2	*	*	*clefG2	*	*
*>[A,B,A]	*	*	*>[A,B,A]	*	*>[A,B,A]	*	*	*>[A,B,A]	*	*
*>A	*	*	*>A	*	*>A	*	*	*>A	*	*
*k[]	*	*	*k[]	*	*k[]	*	*	*k[]	*	*
*M3/1	*	*	*M3/1	*	*M3/1	*	*	*M3/1	*	*
*met(O)	*	*	*met(O)	*	*met(O)	*	*	*met(O)	*	*
=1-	=1-	=1-	=1-	=1-	=1-	=1-	=1-	=1-	=1-	=1-
!!section: Agnus dei I/III
!!!OMD: Agnus dei I/III
!	!	!	!LO:TX:Z=10:t=T text based loosely on Verona 761, where the French words appear sporadically throughout the mass	!	!	!	!	!	!	!
1.c	A-	&	0.r	&	0c	A-	&	0cc	A-	&
2B\	.	.	.	.	.	.	.	.	.	.
1A	-gnus	.	.	.	2e\	-gnus	.	1cc	-gnus	.
.	.	.	.	.	2f\	.	.	.	.	.
=2	=2	=2	=2	=2	=2	=2	=2	=2	=2	=2
1G	de-	.	0.r	.	1g	de-	.	1b	de-	.
1D	.	.	.	.	1.f	.	.	1.a	.	.
1F	.	.	.	.	.	.	.	.	.	.
.	.	.	.	.	2e\	.	.	2g/	.	.
=3	=3	=3	=3	=3	=3	=3	=3	=3	=3	=3
1C	.	.	0.r	.	1e	.	.	1g	.	.
1D	.	.	.	.	2d\	.	.	1.f	.	.
.	.	.	.	.	2.d\	.	.	.	.	.
1BB-	.	.	.	.	.	.	.	.	.	.
.	.	.	.	.	4c\	.	.	.	.	.
.	.	.	.	.	2A/	.	.	2e/	.	.
=4	=4	=4	=4	=4	=4	=4	=4	=4	=4	=4
1C	.	.	0.r	.	2G/	.	.	1e	.	.
.	.	.	.	.	2c\	.	.	.	.	.
0G	.	.	.	.	2d\	.	.	1.d	.	.
.	.	.	.	.	1B	.	.	.	.	.
.	.	.	.	.	2A/	.	.	2c/	.	.
=5	=5	=5	=5	=5	=5	=5	=5	=5	=5	=5
0C	-i	.	0e	L'a-	0c	-i	.	0c	-i	.
1C	qui	.	1e	-mi	1r	.	.	1c	qui	.
=6	=6	=6	=6	=6	=6	=6	=6	=6	=6	=6
0D	tol-	.	0d	Bau-	1.A	qui	.	0f	tol-	.
.	.	.	.	.	1.B-	tol-	.	.	.	.
1BB-i	-lis	.	1d	-di-	.	.	.	1f	-lis	.
=7	=7	=7	=7	=7	=7	=7	=7	=7	=7	=7
2.C/	pec-	.	0c	-chon,	1.G	-lis	.	2e/	pec-	.
.	.	.	.	.	.	.	.	1g	-ca-	.
4D\	.	.	.	.	.	.	.	.	.	.
2E\	.	.	.	.	.	.	.	.	.	.
2F\	.	.	.	.	2A/	.	.	4f/	.	.
.	.	.	.	.	.	.	.	4e/	.	.
1G	-ca-	.	1r	.	1B	pec-	.	1d	.	.
=8	=8	=8	=8	=8	=8	=8	=8	=8	=8	=8
0C	-ta,	.	0g	Plu-	[0.c	-ca-	.	0c	.	.
1C	pec-	.	1g	-mez	.	.	.	1c	-ta,	.
=9	=9	=9	=9	=9	=9	=9	=9	=9	=9	=9
0F	-ca-	.	0f	vos-	0c]	.	.	1a	pec-	.
.	.	.	.	.	.	.	.	1a	-ca-	.
2.A\	-ta-	.	1f	-tre	1F	ta	.	1a	-ta	.
4B\	.	.	.	.	.	.	.	.	.	.
=10	=10	=10	=10	=10	=10	=10	=10	=10	=10	=10
1c	mun-	.	0e	con,	1r	.	.	2g/	mun-	.
.	.	.	.	.	.	.	.	2.cc\	.	.
2A\	.	.	.	.	0c	mun-	.	.	.	.
.	.	.	.	.	.	.	.	4dd\	.	.
1c	.	.	.	.	.	.	.	1ee	.	.
.	.	.	1r	.	.	.	.	.	.	.
4B\	.	.	.	.	.	.	.	4dd\	.	.
4A\	.	.	.	.	.	.	.	4cc\	.	.
=11	=11	=11	=11	=11	=11	=11	=11	=11	=11	=11
1G	-di,	.	0g	Il	1d	-di,	.	0b	-di,	.
2E\	mi-	do-	.	.	0G	.	.	.	.	.
1G	.	.	.	.	.	.	.	.	.	.
.	.	.	1g	en	.	.	.	1g	mi-	do-
4F\	-se-	.	.	.	.	.	.	.	.	.
4E\	.	.	.	.	.	.	.	.	.	.
=12	=12	=12	=12	=12	=12	=12	=12	=12	=12	=12
1D	-re-	-na	0f	est	2.d\	mi-	do-	2.a/	.	.
.	.	.	.	.	4c\	.	.	4b\	.	.
1r	.	.	.	.	2A/	-se-	-na	2cc\	-se-	-na
.	.	.	.	.	2.B-i\	-re-	no-	2.dd\	-re-	no-
1BB-i	-re	no-	1f	say-	.	.	.	.	.	.
.	.	.	.	.	4c\	.	.	4cc\	.	.
.	.	.	.	.	2d\	.	.	4b-i\	.	.
.	.	.	.	.	.	.	.	4a/	.	.
=13	=13	=13	=13	=13	=13	=13	=13	=13	=13	=13
1C	.	-bis,	0e	-son,	2e\	-re	-bis	2.g/	.	.
.	.	.	.	.	2.g\	no-	pa-	.	.	.
.	.	.	.	.	.	.	.	4a/	.	.
1r	.	.	.	.	.	.	.	2b\	.	.
.	.	.	.	.	4f\	.	.	.	.	.
.	.	.	.	.	4e\	.	.	2cc\	-re	-bis
.	.	.	.	.	4d\	.	.	.	.	.
1BB-i	no-	pa-	1r	.	2f\	.	.	2dd\	no-	pa-
.	.	.	.	.	4e\	.	.	2ff\	.	.
.	.	.	.	.	4d\	.	.	.	.	.
=14	=14	=14	=14	=14	=14	=14	=14	=14	=14	=14
0.C	-bis,	-cem,	0e	L'a-	0.c	-bis,	-cem,	2ee\	.	.
.	.	.	.	.	.	.	.	2.gg\	.	.
.	.	.	.	.	.	.	.	4ff\	.	.
.	.	.	.	.	.	.	.	2.ee\	.	.
.	.	.	1e	-mi	.	.	.	.	.	.
.	.	.	.	.	.	.	.	4dd\	.	.
.	.	.	.	.	.	.	.	2cc\	.	.
=15	=15	=15	=15	=15	=15	=15	=15	=15	=15	=15
1G	no-	pa-	0d	Bau-	2r	.	.	2b\	.	.
.	.	.	.	.	2G/	no-	pa-	2.dd\	.	.
1D	.	.	.	.	1A	.	.	.	.	.
.	.	.	.	.	.	.	.	4cc\	.	.
.	.	.	.	.	.	.	.	2a/	.	.
1G	.	.	1d	-di-	1G	.	.	1b	.	.
=16	=16	=16	=16	=16	=16	=16	=16	=16	=16	=16
*	*	*	*	*	*^	*	*	*	*	*
0.Cl	bis.	-cem.	0.cl	-chon.	0.cl\	0.gl/	-bis.	-cem.&	0.ccl	-bis.	-cem.&
*	*	*	*	*	*v	*v	*	*	*	*	*
!!LO:LB:i:g=z
=17||	=17||	=17||	=17||	=17||	=17||	=17||	=17||	=17||	=17||	=17||
*>B	*	*	*>B	*	*>B	*	*	*>B	*	*
!!section: Agnus dei II
!!!OMD: Agnus dei II
*M2/1	*	*	*M2/1	*	*M2/1	*	*	*M2/1	*	*
*met(C|)	*	*	*met(C|)	*	*met(C|)	*	*	*met(C|)	*	*
1.G	A-	&	0r	.	0r	.	&	0r	.	&
2A\	.	.	.	.	.	.	.	.	.	.
=18	=18	=18	=18	=18	=18	=18	=18	=18	=18	=18
1B	.	.	0r	.	0r	.	.	1r	.	.
[1c	-gnus	.	.	.	.	.	.	[1g	A-	.
=19	=19	=19	=19	=19	=19	=19	=19	=19	=19	=19
2c\]	.	.	0r	.	0r	.	.	2g/]	.	.
2B\	.	.	.	.	.	.	.	2a/	.	.
1G	.	.	.	.	.	.	.	1b	.	.
=20	=20	=20	=20	=20	=20	=20	=20	=20	=20	=20
1.A	de-	.	0r	.	1.c	A-	.	1.cc	-gnus	.
2B\	.	.	.	.	2d\	.	.	2b\	.	.
=21	=21	=21	=21	=21	=21	=21	=21	=21	=21	=21
1c	.	.	0r	.	1e	.	.	1g	.	.
[1F	.	.	.	.	[1f	.	.	[1a	de-	.
=22	=22	=22	=22	=22	=22	=22	=22	=22	=22	=22
2F\]	.	.	0r	.	2f\]	-gnus	.	2a/]	.	.
2G\	.	.	.	.	2e\	.	.	2g/	.	.
1A	.	.	.	.	1c	.	.	1e	.	.
=23	=23	=23	=23	=23	=23	=23	=23	=23	=23	=23
1.D	.	.	0r	.	1.d	de-	.	1.f	.	.
2E\	.	.	.	.	2c\	.	.	2g/	.	.
=24	=24	=24	=24	=24	=24	=24	=24	=24	=24	=24
1F	.	.	0r	.	1A	.	.	1a	.	.
[1G	.	.	.	.	[1B	.	.	[1d	.	.
=25	=25	=25	=25	=25	=25	=25	=25	=25	=25	=25
2G\]	.	.	0r	.	2B\]	.	.	2d/]	.	.
2F\	.	.	.	.	2c\	.	.	2e/	.	.
1D	.	.	.	.	1d	.	.	1f	.	.
=26	=26	=26	=26	=26	=26	=26	=26	=26	=26	=26
1.E	-i,	.	0r	.	1.G	-i,	.	1.g	-i,	.
2F\	.	.	.	.	2A/	.	.	2f/	.	.
=27	=27	=27	=27	=27	=27	=27	=27	=27	=27	=27
1G	.	.	0r	.	1B	.	.	1d	.	.
[1C	qui	.	.	.	[1c	qui	.	1c	qui	.
=28	=28	=28	=28	=28	=28	=28	=28	=28	=28	=28
2C/]	.	.	0r	.	2c\]	.	.	0g	tol-	.
2D\	.	.	.	.	2B\	.	.	.	.	.
1E	.	.	.	.	1G	-tol-	.	.	.	.
=29	=29	=29	=29	=29	=29	=29	=29	=29	=29	=29
1.F	tol-	.	0r	.	1F	-lis	.	1.a	-lis	.
.	.	.	.	.	[1c	pec-	.	.	.	.
2E\	.	.	.	.	.	.	.	2g/	.	.
=30	=30	=30	=30	=30	=30	=30	=30	=30	=30	=30
1C	-lis	.	0r	.	1c]	.	.	1e	pec-	.
2.BB/	pec-	.	.	.	[1d	-ca-	.	1d	-ca-	.
4C/	.	.	.	.	.	.	.	.	.	.
=31	=31	=31	=31	=31	=31	=31	=31	=31	=31	=31
2.D\	.	.	0r	.	2d\]	.	.	1.f	.	.
.	.	.	.	.	2c\	.	.	.	.	.
4E\	.	.	.	.	.	.	.	.	.	.
1F	.	.	.	.	1A	.	.	.	.	.
.	.	.	.	.	.	.	.	4g/	.	.
.	.	.	.	.	.	.	.	4a/	.	.
=32	=32	=32	=32	=32	=32	=32	=32	=32	=32	=32
0G	-ca-	.	0r	.	1G	.	.	0b-	.	.
.	.	.	.	.	[1d	-ta	.	.	.	.
=33	=33	=33	=33	=33	=33	=33	=33	=33	=33	=33
1F	-ta	.	0r	.	1d]	.	.	1a	-ta	.
[1c	mun-	.	.	.	[1e	mun-	.	1g	mun-	.
=34	=34	=34	=34	=34	=34	=34	=34	=34	=34	=34
2c\]	.	.	0r	.	1e]	.	.	0cc	.	.
2B\	.	.	.	.	.	.	.	.	.	.
1A	.	.	.	.	1c	.	.	.	.	.
=35	=35	=35	=35	=35	=35	=35	=35	=35	=35	=35
1G	.	.	0r	.	1d	.	.	1b	.	.
[1F	.	.	.	.	[1f	.	.	[1a	.	.
=36	=36	=36	=36	=36	=36	=36	=36	=36	=36	=36
2F\]	.	.	0r	.	1f]	.	.	1a]	.	.
2E\	.	.	.	.	.	.	.	.	.	.
1C	.	.	.	.	1e	.	.	1g	.	.
=37	=37	=37	=37	=37	=37	=37	=37	=37	=37	=37
1D	.	.	0r	.	0d	.	.	1.f	.	.
1BB-	.	.	.	.	.	.	.	.	.	.
.	.	.	.	.	.	.	.	4e/	.	.
.	.	.	.	.	.	.	.	4d/	.	.
=38	=38	=38	=38	=38	=38	=38	=38	=38	=38	=38
0C	-di,	.	0r	.	[0c	-di,	.	[0e	-di,	.
=39	=39	=39	=39	=39	=39	=39	=39	=39	=39	=39
0r	.	.	0r	.	0c]	.	.	0e]	.	.
=40	=40	=40	=40	=40	=40	=40	=40	=40	=40	=40
1.C	mi-	.	0r	.	0r	.	.	0r	.	.
2D\	.	.	.	.	.	.	.	.	.	.
=41	=41	=41	=41	=41	=41	=41	=41	=41	=41	=41
1E	.	.	0r	.	0r	.	.	1.c	mi-	.
1F	-se-	.	.	.	.	.	.	.	.	.
.	.	.	.	.	.	.	.	2d/	.	.
=42	=42	=42	=42	=42	=42	=42	=42	=42	=42	=42
2.G\	-re-	.	0r	.	0r	.	.	1e	.	.
4F\	.	.	.	.	.	.	.	.	.	.
1D	.	.	.	.	.	.	.	1f	-se-	.
=43	=43	=43	=43	=43	=43	=43	=43	=43	=43	=43
1C	-re	.	0r	.	0r	.	.	2.g/	-ra	.
.	.	.	.	.	.	.	.	4f/	.	.
[1F	no-	.	.	.	.	.	.	1d	.	.
=44	=44	=44	=44	=44	=44	=44	=44	=44	=44	=44
2F\]	.	.	0r	.	0r	.	.	1c	-re	.
2G\	.	.	.	.	.	.	.	.	.	.
1A	.	.	.	.	.	.	.	[1f	no-	.
=45	=45	=45	=45	=45	=45	=45	=45	=45	=45	=45
1.D	.	.	0r	.	0r	.	.	2f/]	.	.
.	.	.	.	.	.	.	.	2g/	.	.
.	.	.	.	.	.	.	.	1a	.	.
2E\	.	.	.	.	.	.	.	.	.	.
=46	=46	=46	=46	=46	=46	=46	=46	=46	=46	=46
1F	.	.	0r	.	0r	.	.	1.d	.	.
1G	-bis,	.	.	.	.	.	.	.	.	.
.	.	.	.	.	.	.	.	2e/	.	.
=47	=47	=47	=47	=47	=47	=47	=47	=47	=47	=47
1D	no-	.	0r	.	0r	.	.	1f	.	.
[1G	.	.	.	.	.	.	.	1g	-bis,	.
=48	=48	=48	=48	=48	=48	=48	=48	=48	=48	=48
2G\]	.	.	0r	.	0r	.	.	1d	no-	.
2A\	.	.	.	.	.	.	.	.	.	.
1B	.	.	.	.	.	.	.	[1g	.	.
=49	=49	=49	=49	=49	=49	=49	=49	=49	=49	=49
1c	.	.	0r	.	0r	.	.	2g/]	.	.
.	.	.	.	.	.	.	.	2a/	.	.
2B\	.	.	.	.	.	.	.	1b	.	.
2G\	.	.	.	.	.	.	.	.	.	.
=50	=50	=50	=50	=50	=50	=50	=50	=50	=50	=50
1A	.	.	0r	.	0r	.	.	1cc	.	.
1G	.	.	.	.	.	.	.	2b\	.	.
.	.	.	.	.	.	.	.	[2dd\	.	.
=51	=51	=51	=51	=51	=51	=51	=51	=51	=51	=51
0d	-bis,	.	0r	.	0r	.	.	2dd\]	.	.
.	.	.	.	.	.	.	.	2cc\	.	.
.	.	.	.	.	.	.	.	2a/	.	.
.	.	.	.	.	.	.	.	[2b-i\	.	.
=52	=52	=52	=52	=52	=52	=52	=52	=52	=52	=52
0D	no-	.	0r	.	0r	.	.	2b-\]	.	.
.	.	.	.	.	.	.	.	4a/	.	.
.	.	.	.	.	.	.	.	4g/	.	.
.	.	.	.	.	.	.	.	[1f	.	.
=53	=53	=53	=53	=53	=53	=53	=53	=53	=53	=53
1d	.	.	0r	.	0r	.	.	2f/]	.	.
.	.	.	.	.	.	.	.	4g/	.	.
.	.	.	.	.	.	.	.	4a/	.	.
1G	.	.	.	.	.	.	.	1b-i	.	.
=54	=54	=54	=54	=54	=54	=54	=54	=54	=54	=54
0d	-bis,	.	0r	.	0r	.	.	2a/	.	.
.	.	.	.	.	.	.	.	1b-i	.	.
.	.	.	.	.	.	.	.	2a/	.	.
=55	=55	=55	=55	=55	=55	=55	=55	=55	=55	=55
1.G	no-	.	0r	.	0r	.	.	2b-i\	.	.
.	.	.	.	.	.	.	.	2g/	.	.
.	.	.	.	.	.	.	.	2b-i\	.	.
2F\	.	.	.	.	.	.	.	[2a/	.	.
=56	=56	=56	=56	=56	=56	=56	=56	=56	=56	=56
2G\	.	.	0r	.	0r	.	.	2a/]	.	.
2B-i\	.	.	.	.	.	.	.	1g	.	.
1A	.	.	.	.	.	.	.	.	.	.
.	.	.	.	.	.	.	.	2f#i/	.	.
=57	=57	=57	=57	=57	=57	=57	=57	=57	=57	=57
0G	-bis,	.	0r	.	0r	.	.	0g	-bis,	.
=58	=58	=58	=58	=58	=58	=58	=58	=58	=58	=58
1.E	mi-	.	0r	.	1.G	mi-	.	0r	.	.
2F\	-se-	.	.	.	2A/	.	.	.	.	.
=59	=59	=59	=59	=59	=59	=59	=59	=59	=59	=59
1G	-re-	.	0r	.	1B	.	.	1.g	mi-	.
1C	-re	.	.	.	1c	-se-	.	.	.	.
.	.	.	.	.	.	.	.	2a/	.	.
=60	=60	=60	=60	=60	=60	=60	=60	=60	=60	=60
0r	.	.	0r	.	1G	-re-	.	1b	.	.
.	.	.	.	.	[1c	.	.	1cc	-se-	.
=61	=61	=61	=61	=61	=61	=61	=61	=61	=61	=61
0r	.	.	0r	.	2c\]	.	.	1g	-re-	.
.	.	.	.	.	2d\	.	.	.	.	.
.	.	.	.	.	1e	.	.	[1cc	.	.
=62	=62	=62	=62	=62	=62	=62	=62	=62	=62	=62
0r	.	.	0r	.	1f	.	.	2cc\]	.	.
.	.	.	.	.	.	.	.	2dd\	.	.
.	.	.	.	.	2e\	.	.	1ee	.	.
.	.	.	.	.	2c\	.	.	.	.	.
=63	=63	=63	=63	=63	=63	=63	=63	=63	=63	=63
0r	.	.	0r	.	1d	-re	.	1ff	.	.
.	.	.	.	.	1c	.	.	2ee\	.	.
.	.	.	.	.	.	.	.	2cc\	.	.
=64	=64	=64	=64	=64	=64	=64	=64	=64	=64	=64
0r	.	.	0r	.	2r	.	.	1dd	.	.
.	.	.	.	.	2G/	no-	.	.	.	.
.	.	.	.	.	2.c\	.	.	1cc	-re	.
.	.	.	.	.	4d\	.	.	.	.	.
=65	=65	=65	=65	=65	=65	=65	=65	=65	=65	=65
0r	.	.	0r	.	1e	.	.	2r	.	.
.	.	.	.	.	.	.	.	2g/	no-	.
.	.	.	.	.	1f	.	.	2cc\	.	.
.	.	.	.	.	.	.	.	2dd\	.	.
=66	=66	=66	=66	=66	=66	=66	=66	=66	=66	=66
0r	.	.	0r	.	2e\	.	.	1ee	.	.
.	.	.	.	.	2c\	.	.	.	.	.
.	.	.	.	.	2.d\	.	.	1ff	.	.
.	.	.	.	.	4c\	.	.	.	.	.
=67	=67	=67	=67	=67	=67	=67	=67	=67	=67	=67
0r	.	.	0r	.	1A	-bis,	.	2ee\	.	.
.	.	.	.	.	.	.	.	2cc\	.	.
.	.	.	.	.	2r	.	.	2.dd\	.	.
.	.	.	.	.	2G/	no-	.	.	.	.
.	.	.	.	.	.	.	.	4cc\	.	.
=68	=68	=68	=68	=68	=68	=68	=68	=68	=68	=68
0r	.	.	0r	.	2c\	.	.	1a	-bis,	.
.	.	.	.	.	2d\	.	.	.	.	.
.	.	.	.	.	1e	.	.	2r	.	.
.	.	.	.	.	.	.	.	2g/	no-	.
=69	=69	=69	=69	=69	=69	=69	=69	=69	=69	=69
1r	.	.	0r	.	1f	.	.	2cc\	.	.
.	.	.	.	.	.	.	.	2dd\	.	.
1c	no-	.	.	.	2e\	.	.	1ee	.	.
.	.	.	.	.	2c\	.	.	.	.	.
=70	=70	=70	=70	=70	=70	=70	=70	=70	=70	=70
1B	.	.	0r	.	1d	.	.	1ff	.	.
2c\	.	.	.	.	2c\	.	.	2ee\	.	.
2G\	.	.	.	.	2B\	.	.	[2dd\	.	.
=71	=71	=71	=71	=71	=71	=71	=71	=71	=71	=71
1A	.	.	0r	.	1c	.	.	4dd\]	.	.
.	.	.	.	.	.	.	.	4cc\	.	.
.	.	.	.	.	.	.	.	1cc	.	.
1G	.	.	.	.	1d	.	.	.	.	.
.	.	.	.	.	.	.	.	2b\	.	.
=72	=72	=72	=72	=72	=72	=72	=72	=72	=72	=72
2C/	.	.	0r	.	[0cl	-bis.	.	[0ccl	-bis.	.
1F	.	.	.	.	.	.	.	.	.	.
4E\	.	.	.	.	.	.	.	.	.	.
4D\	.	.	.	.	.	.	.	.	.	.
=73	=73	=73	=73	=73	=73	=73	=73	=73	=73	=73
0Cl	-bis.	.	0r	.	0c]	.	.	0cc]	.	.
!!LO:TX:i:Y=80:rj:t=Tertius Agnus ut supra
=||	=||	=||	=||	=||	=||	=||	=||	=||	=||	=||
*-	*-	*-	*-	*-	*-	*-	*-	*-	*-	*-
!!!RDF**kern: l=long note in original notation
!!!RDF**kern: i=editorial accidental
!!!RDF**kern: V=start of tuplet marker
!!!RDF**kern: Z=end of tuplet marker
!!!ENC: Jesse Rodin 2021/09/29
!!!END: 2012/02/11/
!!!EED: Jesse Rodin
!!!EEV: 2012/06/09/
!!attribution-level@Jos: 2 (provisionally attributable [parentheses checkmark])
!!!ONB: : ranslated from MusicXML and edited on 2012/05/25/ by Craig Sapp
!!muse2ps: T^@{OPR}^u^@{ONM}{. }@{OTL}^C^@{COM}\n@{SCT}^i2I150v85,85,85,110c120z18l2700t130
